X: 30
M:6/8
L:1/8
Q:100
K:DAeol
f2f e2e|d>ed cA2|c>BA G2F|FE2 F3|ccd cAF|cd/2e/2f gec|A>GF E2D|ddc dAA|c
>BA GDF|E>FE D3||

